src/main/resources/icons/RustIcons/method.svg

<svg width="16" height="16" viewBox="0 0 16 16" fill="none" xmlns="http://www.w3.org/2000/svg">
<rect x="1" y="1" width="14" height="14" rx="3" fill="#F98B9E" fill-opacity="0.6"/>
<path fill-rule="evenodd" clip-rule="evenodd" d="M11.9922 8.00001C11.9912 7.25101 11.6351 6.00031 9.98163 6.00031C9.11224 6.00031 8.6576 6.50201 8.5986 6.60001C8.28363 6.19412 7.94412 6.00031 7.1 6.00031C6.39791 6.00031 6 6.29924 6 6.29924V6.00031H5V11.0003H6C6 11.0003 5.95 8.23431 6 8.00001C6.05 7.76571 6.05 7.00001 7 7.00001C7.95 7.00001 7.999 7.53701 8 8.00001V11.0003H9V8.00001C9 7.68601 8.95912 7.00001 9.98163 7.00001C11.0041 7.00001 11.0041 7.73962 11.0047 8.00001C11.0047 8.00001 11.0047 9.18563 11.0047 9.77845C11.0047 10.1857 11.0047 11.0003 11.0047 11.0003H11.9972L11.9922 8.00001Z" fill="#231F20" fill-opacity="0.7"/>
</svg>

<svg width="16" height="16" viewBox="0 0 16 16" fill="none" xmlns="http://www.w3.org/2000/svg"><rect id="frame" width="16" height="16" fill="none"/><rect x="1" y="1" width="14" height="14" rx="3" fill="#F98B9E" fill-opacity=".6"/><path fill-rule="evenodd" clip-rule="evenodd" d="M11.992 8c0-.749-.357-2-2.01-2-.87 0-1.324.502-1.383.6C8.284 6.194 7.944 6 7.1 6c-.702 0-1.1.3-1.1.3V6H5v5h1s-.05-2.766 0-3c.05-.234.05-1 1-1s.999.537 1 1v3h1V8c0-.314-.04-1 .982-1s1.022.74 1.023 1v3h.992l-.005-3z" fill="#231F20" fill-opacity=".7"/></svg>
